!!!COM:	la Rue, Pierre de
!!!CDT:	~1452///-1518/11/20
!!!OPR:	Missa Tandernaken
!!!ONM:	3
!!!OTL:	Credo
!!!AGN:	Mass; Credo
!!!SCT:	Rue1030c
!!!SCA:	Rue1030c
!!!voices-OPR:	4
!!!voices:	4
**kern	**kern	**kern	**kern
*staff4	*staff3	*staff2	*staff1
*Ivox	*Ivox	*Ivox	*Ivox
*I"Bassus	*I"Tenor	*I"Contra	*I"Discantus
*I'B	*I'T	*I'C	*I'D
*>[A,B]	*>[A,B]	*>[A,B]	*>[A,B]
*>A	*>A	*>A	*>A
*clefF4	*clefGv2	*clefGv2	*clefG2
*k[b-]	*k[b-]	*k[b-]	*k[]
*M2/1	*M2/1	*M2/1	*M2/1
*met(C|)	*met(C|)	*met(C|)	*met(C|)
!!section: Patrem omnipotentem
!!!OMD: Patrem omnipotentem
=1-	=1-	=1-	=1-
1D	0r	1d	1a
2D\	.	2d\	2a/
2D\	.	2d\	2a/
=2	=2	=2	=2
2D\	0r	2A/	2f/
2D\	.	1B-	2f/
1C	.	.	2.e/
.	.	2A/	.
.	.	.	4e/
=3	=3	=3	=3
2BB-/	0d	2B-\	2d/
2BB-/	.	2B-\	2d/
1D	.	2A/	1f
.	.	2A/	.
=4	=4	=4	=4
1G	1d	1B-	1g
2F\	[1d	2A/	2a/
2BB-/	.	[2d\	2b-i\
=5	=5	=5	=5
2F\	1d]	2d\]	2a/
2G\	.	4c\	1g
.	.	4B-\	.
1D	1d	1A	.
.	.	.	2f#i/
=6	=6	=6	=6
2r	0G	2r	1g
1C	.	1c	.
.	.	.	2e/
2C/	.	2c\	2e/
=7	=7	=7	=7
2C/	1G	2c\	2e/
2C/	.	2c\	2g/
1D	[1d	2A/	2f/
.	.	[2d\	[2a/
=8	=8	=8	=8
2F\	1d]	2d\]	2a/]
2G\	.	2B-\	2b-i\
2A\	1c	2A/	2cc\
2F\	.	2A/	2a/
=9	=9	=9	=9
2G\	1B-	2d\	2b-i\
2G\	.	2d\	1g
1D	[1A	2d\	.
.	.	[2d\	4f#i/
.	.	.	4e/
=10	=10	=10	=10
2D\	1A]	2d\]	1f#i
2D\	.	2d\	.
[1GG	[1G	2d\	1g
.	.	[2B-\	.
=11	=11	=11	=11
0GG]	1G]	4B-\]	0r
.	.	4c\	.
.	.	2d\	.
.	1G	2B-\	.
.	.	2B-\	.
=12	=12	=12	=12
0D	0F	1A	2r
.	.	.	2a/
.	.	1r	2a/
.	.	.	[2f/
=13	=13	=13	=13
1r	1F	0r	4f/]
.	.	.	4g/
.	.	.	2a/
2r	[1F	.	1d
2D\	.	.	.
=14	=14	=14	=14
2D\	1F]	1r	0r
2.BB-/	.	.	.
.	1F	2r	.
4C/	.	.	.
2D\	.	2d\	.
=15	=15	=15	=15
0GG	0G	2d\	0r
.	.	2.B-\	.
.	.	4c\	.
.	.	2d\	.
=16	=16	=16	=16
1D	1F	1A	1r
1C	1E	1r	2r
.	.	.	2c/
=17	=17	=17	=17
1BB-	0D	1r	2d/
.	.	.	2d/
1BB-	.	2r	2f/
.	.	2D/	2f/
=18	=18	=18	=18
1C	0C	2E/	2e/
.	.	2E/	2g/
1FF	.	2F/	2a/
.	.	2F/	2a/
=19	=19	=19	=19
2r	1C	2E/	2g/
2C/	.	2G/	2e/
1FF	[1C	2A/	2f/
.	.	2A/	2f/
=20	=20	=20	=20
1C	1C]	2G/	1e
.	.	2E/	.
1FF	1C	2F/	1r
.	.	2F/	.
=21	=21	=21	=21
2r	0F	2A/	0r
2.F\	.	1c	.
4G\	.	.	.
2A\	.	2c\	.
=22	=22	=22	=22
2D\	1F	2A/	2r
2.F\	.	2A/	2cc\
.	[1A	1F	2cc\
4G\	.	.	.
2A\	.	.	2cc\
=23	=23	=23	=23
2D\	1A]	0r	2a/
2.F\	.	.	2a/
.	1A	.	2.f/
4G\	.	.	.
2A\	.	.	.
.	.	.	4g/
=24	=24	=24	=24
0F	0c	2r	2a/
.	.	1c	1f
.	.	2c\	4e/
.	.	.	4d/
=25	=25	=25	=25
1r	1c	2A/	0c
.	.	2A/	.
2r	[1A	[1F	.
2F\	.	.	.
=26	=26	=26	=26
2F\	1A]	1F]	0r
2F\	.	.	.
2D\	1A	1r	.
2D\	.	.	.
=27	=27	=27	=27
0BB-	0d	1F	1f
.	.	2F/	2f/
.	.	2F/	2f/
=28	=28	=28	=28
0r	1c	2E/	2g/
.	.	2.F/	2.a/
.	1A	.	.
.	.	4E/	4g/
.	.	2F/	4f/
.	.	.	4e/
=29	=29	=29	=29
0GG	0B-	1G	2d/
.	.	.	2.g/
.	.	1G	.
.	.	.	4f/
.	.	.	4e/
.	.	.	4d/
=30	=30	=30	=30
1AA	0A	1E	1c
2C/	.	2r	2e/
[2D\	.	2D/	[2f/
=31	=31	=31	=31
2D\]	1A	2d\	2f/]
2AA/	.	2c\	2e/
2D\	[1A	2d\	2f/
2AA/	.	2c\	2e/
=32	=32	=32	=32
2D\	1A]	2d\	2f/
2D\	.	2D/	2f/
1AA	1A	1E	1c
=33	=33	=33	=33
0BB-	0F	0D	2d/
.	.	.	2d/
.	.	.	2d/
.	.	.	2d/
=34	=34	=34	=34
[0FF	1F	1A	2c/
.	.	.	2c/
.	[1F	2r	1A
.	.	2c\	.
=35	=35	=35	=35
0FF]	1F]	2c\	0r
.	.	2c\	.
.	1F	2d\	.
.	.	2c\	.
=36	=36	=36	=36
0r	0c	2F/	2r
.	.	2F/	2A/
.	.	1F	2A/
.	.	.	2A/
=37	=37	=37	=37
1r	1B-	2G/	2G/
.	.	2G/	1g
1FF	1A	1c	.
.	.	.	[2f/
=38	=38	=38	=38
0C	0G	1c	2f/]
.	.	.	4e/
.	.	.	4d/
.	.	1c	1e
=39	=39	=39	=39
2D\	0F	2A/	1f
2D\	.	2A/	.
2BB-/	.	2B-\	1r
2BB-/	.	2B-\	.
=40	=40	=40	=40
2AA/	1F	2c\	2r
2AA/	.	2c\	2a/
2GG/	[1G	2B-\	2b-\
2GG/	.	2B-\	2b-i\
=41	=41	=41	=41
2C/	1G]	2c\	2g/
2C/	.	2c\	2.g/
2BB-/	1G	2d\	.
.	.	.	4a/
2BB-/	.	2d\	2b-i\
=42	=42	=42	=42
0AA	0A	0c	2cc\
.	.	.	1a
.	.	.	4g/
.	.	.	4f/
=43	=43	=43	=43
0r	1G	2r	1e
.	.	2B-\	.
.	1F	2.A/	1f
.	.	4B-\	.
=44	=44	=44	=44
0r	0E	4c\	0r
.	.	4A/	.
.	.	1d	.
.	.	2c#i\	.
=45	=45	=45	=45
1r	0D	1d	1r
1D	.	1f	1a
=46	=46	=46	=46
1BB-	0d	1f	0b-
1BB-	.	1f	.
=47	=47	=47	=47
0F	1c	1f	1a
.	1A	1f	[1a
=48	=48	=48	=48
0G	0B-	0d	1a]
.	.	.	1g
=49	=49	=49	=49
1D	[0Al	2r	[0a
.	.	2d\	.
2r	.	2d\	.
2D\	.	2d\	.
=50	=50	=50	=50
2D\	0A_	2.f\	0a]
2D\	.	.	.
.	.	4e\	.
2.F\	.	2d\	.
.	.	4c\	.
4E\	.	4B-\	.
=51	=51	=51	=51
2D\	0A_	2A/	2r
4C/	.	2A/	2a/
4BB-/	.	.	.
[1AA	.	1c	2a/
.	.	.	2a/
=52	=52	=52	=52
1AA]	0A_	0c	2.cc\
.	.	.	4b\
1AA	.	.	2a/
.	.	.	4g/
.	.	.	4f/
=53	=53	=53	=53
2r	0A_	2r	2e/
2AA/	.	2A/	2e/
2D\	.	2F/	2f/
2D\	.	2D/	2f/
=54	=54	=54	=54
2C/	0A_	2E/	2e/
2D\	.	2F/	2d/
2D\	.	2F/	2f/
2D\	.	2D/	2f/
=55	=55	=55	=55
2AA/	0A_	2E/	2e/
2D\	.	2F/	2d/
2D\	.	2F/	2f/
2D\	.	2D/	2f/
=56	=56	=56	=56
1C	0A_	1E	1e
1D	.	1F	1d
=57	=57	=57	=57
[0AAl	0A_	1.E	[0el
.	.	2C/	.
=58	=58	=58	=58
0AA]	0A]	0Cl	0e]
!!LO:LB:i:g=z
=59||	=59||	=59||	=59||
*>B	*>B	*>B	*>B
*clefF4	*clefGv2	*clefGv2	*clefG2
*k[b-]	*k[b-]	*k[b-]	*k[]
*M2/1	*M2/1	*M2/1	*M2/1
*met(C|)	*met(C|)	*met(C|)	*met(C|)
!!section: Et resurrexit
!!!OMD: Et resurrexit
0r	0A	0r	2e/
.	.	.	2e/
.	.	.	2f/
.	.	.	2e/
=60	=60	=60	=60
0r	1B-	0r	2d/
.	.	.	2g/
.	1A	.	2g/
.	.	.	[2f/
=61	=61	=61	=61
0r	0G	0r	2f/]
.	.	.	4e/
.	.	.	4d/
.	.	.	1e
=62	=62	=62	=62
2r	1F	2r	0f
2F\	.	2c\	.
2F\	2r	2d\	.
2F\	2A/	2f\	.
=63	=63	=63	=63
2G\	2B-\	2e\	0r
2D\	2A/	1d	.
1E	2A/	.	.
.	2G/	2c#i\	.
=64	=64	=64	=64
0D	1A	0d	2r
.	.	.	2a/
.	2r	.	2a/
.	2d\	.	2a/
=65	=65	=65	=65
0r	2d\	0r	2b-i\
.	2d\	.	2a/
.	2e\	.	2g/
.	2d\	.	[2a/
=66	=66	=66	=66
0r	2c\	0r	2a/]
.	1d	.	4g/
.	.	.	4f/
.	.	.	1e
.	2c#i\	.	.
=67	=67	=67	=67
2r	1d	2r	0d
2BB-/	.	2F/	.
2BB-/	1r	2G/	.
2BB-/	.	2B-\	.
=68	=68	=68	=68
2C/	0r	2A/	0r
2GG/	.	2G/	.
2AA/	.	2G/	.
2AA/	.	2F#i/	.
=69	=69	=69	=69
2GG/	2r	2G/	1d
2GG/	2G/	2B-\	.
2GG/	2B-\	2G/	2d/
2GG/	2B-\	2G/	2d/
=70	=70	=70	=70
2D\	2A/	2F/	2d/
2GG/	2G/	2B-\	2d/
2GG/	2B-\	2G/	2d/
2GG/	2B-\	2G/	2d/
=71	=71	=71	=71
0D	2A/	0F	2d/
.	2A/	.	2d/
.	2A/	.	2f/
.	2A/	.	2f/
=72	=72	=72	=72
2C/	2A/	0r	2e/
1D	2A/	.	2d/
.	2A/	.	2f/
4C/	2A/	.	2f/
4BB-/	.	.	.
=73	=73	=73	=73
1AA	2A/	0r	2c/
.	2A/	.	1e
1r	2c\	.	.
.	2d\	.	[2a/
=74	=74	=74	=74
0r	4c\	2r	2a/]
.	4B-\	.	.
.	4A/	2c\	2g/
.	4G/	.	.
.	1A	2c\	2g/
.	.	2c\	2f#i/
=75	=75	=75	=75
2r	0G	2d\	0g
2C/	.	2e\	.
2BB-/	.	2d\	.
2C/	.	[2c\	.
=76	=76	=76	=76
1D	0r	2c\]	0r
.	.	2Bni\	.
1C	.	[1c	.
=77	=77	=77	=77
2r	1G	1c]	2r
2C/	.	.	2.e/
2C/	2.G/	1c	.
.	.	.	4e/
2C/	.	.	2e/
.	4G/	.	.
=78	=78	=78	=78
2E\	2G/	2c\	2g/
2G\	1B-	1d	2g/
2D\	.	.	2f/
2D\	2A/	2d\	2f/
=79	=79	=79	=79
2F\	2A/	1c	2a/
2F\	2c\	.	2a/
2E\	2c\	1r	1g
2G\	2B-\	.	.
=80	=80	=80	=80
2F\	2A/	0r	0r
2D\	2B-\	.	.
2C/	2A/	.	.
[2D\	[2B-\	.	.
=81	=81	=81	=81
2D\]	2B-\]	0r	1r
4C/	1G	.	.
4BB-/	.	.	.
1AA	.	.	1a
.	2F/	.	.
=82	=82	=82	=82
0r	2G/	1r	2b-i\
.	2F/	.	1a
.	1D	1d	.
.	.	.	2f/
=83	=83	=83	=83
0r	0r	2e\	2g/
.	.	1d	2f/
.	.	.	2d/
.	.	2B-\	2g/
=84	=84	=84	=84
0r	0r	2c\	2a/
.	.	2B-\	1b-i
.	.	2G/	.
.	.	2A/	[2a/
=85	=85	=85	=85
1r	0r	1B-	2a/]
.	.	.	2g/
2r	.	1A	[1a
2AA/	.	.	.
=86	=86	=86	=86
2AA/	2r	0A	1a]
2AA/	2A/	.	.
1D	2A/	.	1a
.	2A/	.	.
=87	=87	=87	=87
2r	1d	0r	0f
2D\	.	.	.
2D\	2r	.	.
2D\	[2A/	.	.
=88	=88	=88	=88
1F	2A/]	0r	1f
.	2A/	.	.
1E	2G/	.	[1g
.	[2c\	.	.
=89	=89	=89	=89
0C	2c\]	0r	1g]
.	4B-\	.	.
.	4A/	.	.
.	1G	.	1g
=90	=90	=90	=90
0r	1F	2r	1.a
.	.	2f\	.
.	1r	2f\	.
.	.	2e\	[2g/
=91	=91	=91	=91
0r	0r	2e\	2g/]
.	.	1d	2f/
.	.	.	1e
.	.	2c#i\	.
=92	=92	=92	=92
1r	1D	1d	1d
2AA/	1E	1A	2c/
2AA/	.	.	2c/
=93	=93	=93	=93
2AA/	2E/	2A/	2c/
2AA/	2E/	2A/	2c/
2AA/	2E/	2A/	2c/
[2GG/	2G/	[2B-\	[2d/
=94	=94	=94	=94
2GG/]	1D	2B-\]	4d/]
.	.	.	4c/
2FF/	.	2A/	2A/
1GG	1G	2G/	1B-
.	.	2d\	.
=95	=95	=95	=95
1AA	0E	2c\	1A
.	.	2A/	.
2r	.	2B-\	2r
2AA/	.	2c\	2A/
=96	=96	=96	=96
2GG/	0r	2d\	2B-i/
2AA/	.	4A/	2c/
.	.	4A/	.
2GG/	.	2B-\	2d/
2AA/	.	2c\	4A/
.	.	.	4A/
=97	=97	=97	=97
2GG/	0r	2d\	2B-i/
2C/	.	4r	2c/
.	.	4e\	.
2BB-/	.	2f\	1d
2D\	.	2f\	.
=98	=98	=98	=98
2r	1A	2e\	2r
2AA/	.	2c\	2e/
2D\	2A/	1d	2f/
2D\	2A/	.	2f/
=99	=99	=99	=99
2AA/	2A/	2c\	2e/
2AA/	2A/	2e\	2c/
1D	2A/	1f	1d
.	[2A/	.	.
=100	=100	=100	=100
2AA/	2A/]	2e\	2c/
2AA/	2A/	2c\	2e/
1D	1A	1d	1f
=101	=101	=101	=101
1AA	0A	1c	1e
2r	.	1r	1r
2D\	.	.	.
=102	=102	=102	=102
2D\	2r	0r	0r
2D\	2A/	.	.
2C/	2A/	.	.
2D\	2A/	.	.
=103	=103	=103	=103
2E\	2G/	0r	0r
2F\	2A/	.	.
2D\	2B-\	.	.
2C/	2c\	.	.
=104	=104	=104	=104
2r	2A/	1c	0r
2C/	2G/	.	.
2C/	2r	2c\	.
2C/	2E/	2c\	.
=105	=105	=105	=105
2AA/	2E/	2c\	0r
2AA/	2E/	2c\	.
2AA/	2E/	2c\	.
[2D\	2F/	[2B-\	.
=106	=106	=106	=106
2D\]	2F/	2B-\]	1r
2AA/	2E/	1A	.
1BB-	2E/	.	1d
.	2D/	2G/	.
=107	=107	=107	=107
0AA	0E	0A	1c
.	.	.	2c/
.	.	.	[2e/
=108	=108	=108	=108
0r	0r	2r	2e/]
.	.	2A/	2f/
.	.	2A/	2e/
.	.	2A/	2c/
=109	=109	=109	=109
0r	0r	2B-\	2d/
.	.	2d\	2f/
.	.	2c\	2e/
.	.	2A/	2c/
=110	=110	=110	=110
0r	0r	2B-\	4d/
.	.	.	4c/
.	.	1A	4B-i/
.	.	.	4A/
.	.	.	1B-i
.	.	2G/	.
=111	=111	=111	=111
1AA	2r	1A	[0Al
.	2C/	.	.
2D\	2D/	2r	.
2AA/	[2F/	2c\	.
=112	=112	=112	=112
2D\	2F/]	2d\	0A_
2D\	2D/	2f\	.
1AA	2E/	2e\	.
.	2E/	2c\	.
=113	=113	=113	=113
2r	2F/	2d\	0A_
2D\	2D/	2f\	.
2C/	1E	2e\	.
2AA/	.	2c\	.
=114	=114	=114	=114
1D	0F	0d	0A_
1D	.	.	.
=115	=115	=115	=115
0AA;	0E;	0c#i;	0A_
=116	=116	=116	=116
0Dl	0Dl	0dl	0A]
==	==	==	==
*-	*-	*-	*-
!!!RDF**kern: l=long note in original notation
!!!RDF**kern: i=editorial accidental
!!!ENC:	Chris Gage 05-24-2013
!!!END:	2013/08/04/
!!!EED:	Jesse Rodin
!!!EEV:	2013/08/05/
!!!ONB:	Translated from MusicXML and edited on 2013/08/05/ by Craig Sapp
!!muse2ps: T^@{OPR}^u^@{ONM}{. }@{OTL}^C^@{COM}^i2I150v85,85,85,150Q8c90
